X: 24299
T: Lost Pilgrim, The
R: jig
M: 6/8
K: Gmajor
|:B|ded BAG|EAA A2c|BGE E2D|GAB AGE|
ded BAG|EAA A2c|BAG E2D|EGG G2:|
|:B|dgb age|dge edB|AGB AGE|DGB A2E|
DED BAG|EAB cBA|1 ~B3 GED|EGG G2:|2 BdB AGE DEG G2||

